src/asset/cabinet/receive_icon.svg

<svg width="24" height="24" viewBox="0 0 24 24" fill="none" xmlns="http://www.w3.org/2000/svg">
<path fill-rule="evenodd" clip-rule="evenodd" d="M17.9619 11.3087C18.0393 11.4955 17.9966 11.7106 17.8536 11.8536L12.9037 16.8034C12.7085 16.9986 12.3919 16.9986 12.1966 16.8034L7.2469 11.8536C7.1039 11.7106 7.06112 11.4956 7.13851 11.3087C7.2159 11.1219 7.39821 11.0001 7.60044 11.0001L9.9929 11C9.91671 8.35992 9.23454 6.64468 8.28916 5.5824C7.29173 4.46163 5.94088 4 4.5 4C4.22386 4 4 3.77614 4 3.5C4 3.22386 4.22386 3 4.5 3C8.06007 3 10.6965 3.76127 12.448 5.24331C14.1006 6.64168 14.8942 8.62023 14.9901 11L17.5 11C17.7022 11 17.8845 11.1218 17.9619 11.3087ZM8.56067 4.44254C8.72514 4.58833 8.8839 4.74649 9.03618 4.9176C10.2573 6.28969 11 8.42565 11 11.5C11 11.7761 10.7761 12 10.5 12L8.80753 12L12.5502 15.7427L16.2929 12L14.5 12.0001C14.3674 12.0001 14.2402 11.9474 14.1465 11.8536C14.0527 11.7598 14 11.6327 14 11.5001C14 9.10307 13.285 7.26153 11.802 6.0067C10.9881 5.31798 9.91892 4.7854 8.56067 4.44254Z" fill="black" fill-opacity="0.87"/>
<path fill-rule="evenodd" clip-rule="evenodd" d="M4.50001 12.5C4.77616 12.5 5.00001 12.7239 5.00001 13V18.5C5.00001 19.3284 5.67159 20 6.50001 20H18.5C19.3284 20 20 19.3284 20 18.5V13C20 12.7239 20.2239 12.5 20.5 12.5C20.7762 12.5 21 12.7239 21 13V18.5C21 19.8807 19.8807 21 18.5 21H6.50001C5.1193 21 4.00001 19.8807 4.00001 18.5V13C4.00001 12.7239 4.22387 12.5 4.50001 12.5Z" fill="black" fill-opacity="0.87"/>
</svg>

<svg width="24" height="24" fill="none" xmlns="http://www.w3.org/2000/svg"><path fill-rule="evenodd" clip-rule="evenodd" d="M17.962 11.309a.5.5 0 01-.108.545l-4.95 4.95a.5.5 0 01-.707 0l-4.95-4.95A.5.5 0 017.6 11h2.393c-.076-2.64-.758-4.355-1.704-5.418C7.292 4.462 5.941 4 4.5 4a.5.5 0 010-1c3.56 0 6.197.761 7.948 2.243C14.101 6.642 14.894 8.62 14.99 11h2.51a.5.5 0 01.462.309zM8.56 4.443c.164.145.323.303.475.475C10.257 6.29 11 8.426 11 11.5a.5.5 0 01-.5.5H8.808l3.742 3.743L16.293 12H14.5a.5.5 0 01-.5-.5c0-2.397-.715-4.238-2.198-5.493-.814-.689-1.883-1.222-3.241-1.564z" fill="#000" fill-opacity=".87"/><path fill-rule="evenodd" clip-rule="evenodd" d="M4.5 12.5a.5.5 0 01.5.5v5.5A1.5 1.5 0 006.5 20h12a1.5 1.5 0 001.5-1.5V13a.5.5 0 011 0v5.5a2.5 2.5 0 01-2.5 2.5h-12A2.5 2.5 0 014 18.5V13a.5.5 0 01.5-.5z" fill="#000" fill-opacity=".87"/></svg>
